; generated by PrusaSlicer 2.0.0+ on 2020-08-20 at 15:38:19

; 

; external perimeters extrusion width = 0.45mm
; perimeters extrusion width = 0.45mm
; infill extrusion width = 0.45mm
; solid infill extrusion width = 0.45mm
; top infill extrusion width = 0.40mm
; support material extrusion width = 0.35mm
; first layer extrusion width = 0.42mm

M73 P0 R75
M73 Q0 S76
M201 X1000 Y1000 Z200 E5000 ; sets maximum accelerations, mm/sec^2
M203 X200 Y200 Z12 E120 ; sets maximum feedrates, mm/sec
M204 P1250 R1250 T1250 ; sets acceleration (P, T) and retract acceleration (R), mm/sec^2
M205 X8.00 Y8.00 Z0.40 E1.50 ; sets the jerk limits, mm/sec
M205 S0 T0 ; sets the minimum extruding and travel feed rate, mm/sec
M107
M115 U3.9.0 ; tell printer latest fw version
G90 ; use absolute coordinates
M83 ; extruder relative mode
M104 S215 ; set extruder temp
M140 S60 ; set bed temp
M190 S60 ; wait for bed temp
M109 S215 ; wait for extruder temp
G28 W ; home all without mesh bed level
G80 ; mesh bed leveling
G1 Y-3.0 F1000.0 ; go outside print area
G92 E0.0
G1 X60.0 E9.0 F1000.0 ; intro line
M73 Q0 S76
M73 P0 R75
G1 X100.0 E12.5 F1000.0 ; intro line
G92 E0.0
M221 S95
M900 K30 ; Filament gcode
G21 ; set units to millimeters
G90 ; use absolute coordinates
M83 ; use relative distances for extrusion
;BEFORE_LAYER_CHANGE
G92 E0.0
;0.2


G1 E-0.80000 F2100.00000
G1 Z0.600 F10800.000
;AFTER_LAYER_CHANGE
;0.2
G1 X92.294 Y63.537
G1 Z0.200
G1 E0.80000 F2100.00000
M204 S1000
G1 F1200
G1 X93.417 Y62.760 E0.04281
G1 X94.706 Y62.247 E0.04349
G1 X96.012 Y62.042 E0.04145
G1 X153.706 Y62.034 E1.80894
G1 X154.824 Y62.139 E0.03521
G1 X155.975 Y62.475 E0.03759
G1 X156.977 Y62.992 E0.03536
G1 X157.895 Y63.710 E0.03655
G1 X158.634 Y64.555 E0.03519
G1 X159.205 Y65.521 E0.03519
G1 X159.602 Y66.623 E0.03672
G1 X159.779 Y67.748 E0.03571
G1 X159.790 Y141.947 E2.32647
G1 X159.709 Y142.867 E0.02895
G1 X159.487 Y143.774 E0.02927
G1 X159.129 Y144.636 E0.02927
G1 X158.643 Y145.433 E0.02927
G1 X157.680 Y146.485 E0.04472
G1 X156.514 Y147.277 E0.04420
G1 X155.186 Y147.781 E0.04454
G1 X153.805 Y147.964 E0.04368
G1 X96.205 Y147.965 E1.80600
G1 X95.297 Y147.882 E0.02860
G1 X94.391 Y147.659 E0.02927
G1 X93.534 Y147.301 E0.02910
G1 X92.742 Y146.818 E0.02909
G1 X91.690 Y145.855 E0.04472
G1 X90.893 Y144.679 E0.04455
G1 X90.391 Y143.350 E0.04454
G1 X90.210 Y141.958 E0.04402
G1 X90.210 Y68.047 E2.31742
G1 X90.291 Y67.133 E0.02877
G1 X90.515 Y66.221 E0.02944
G1 X90.874 Y65.359 E0.02927
G1 X91.357 Y64.567 E0.02909
G1 X92.254 Y63.581 E0.04179
G1 F8640
G1 X93.417 Y62.760 E-0.32879
G1 X94.706 Y62.247 E-0.32031
G1 X95.181 Y62.173 E-0.11090
G1 E-0.04000 F2100.00000
G1 Z0.800 F10800.000
G1 X157.751 Y80.464
G1 Z0.200
G1 E0.80000 F2100.00000
G1 F1200
G1 X158.300 Y81.087 E0.02604
G1 X158.802 Y81.904 E0.03008
G1 X159.168 Y82.820 E0.03091
G1 X159.377 Y83.836 E0.03253
G1 X159.410 Y93.011 E0.28767
G1 X159.311 Y93.897 E0.02796
G1 X159.072 Y94.769 E0.02835
G1 X158.694 Y95.601 E0.02866
G1 X158.150 Y96.410 E0.03056
G1 X157.753 Y96.815 E0.01780
G1 X158.300 Y97.437 E0.02598
G1 X158.802 Y98.254 E0.03008
G1 X159.168 Y99.170 E0.03091
G1 X159.377 Y100.186 E0.03253
G1 X159.410 Y109.361 E0.28767
G1 X159.311 Y110.247 E0.02796
G1 X159.072 Y111.119 E0.02835
G1 X158.694 Y111.951 E0.02866
G1 X158.150 Y112.760 E0.03056
G1 X157.753 Y113.165 E0.01780
G1 X158.300 Y113.787 E0.02598
G1 X158.802 Y114.604 E0.03008
G1 X159.168 Y115.520 E0.03091
G1 X159.377 Y116.536 E0.03253
G1 X159.410 Y125.711 E0.28767
G1 X159.311 Y126.597 E0.02796
G1 X159.072 Y127.469 E0.02835
G1 X158.694 Y128.301 E0.02866
G1 X158.150 Y129.110 E0.03057
G1 X157.751 Y129.516 E0.01784
G1 X158.273 Y130.100 E0.02454
G1 X158.781 Y130.913 E0.03009
G1 X159.154 Y131.825 E0.03087
G1 X159.372 Y132.839 E0.03252
G1 X159.406 Y142.128 E0.29125
G1 X159.306 Y142.974 E0.02673
G1 X159.084 Y143.786 E0.02640
G1 X158.678 Y144.678 E0.03072
G1 X158.107 Y145.512 E0.03170
G1 X157.390 Y146.239 E0.03199
G1 X156.336 Y146.942 E0.03974
G1 X155.143 Y147.403 E0.04010
G1 X153.860 Y147.587 E0.04064
G1 X145.111 Y147.582 E0.27432
G1 X144.269 Y147.485 E0.02655
G1 X143.368 Y147.233 E0.02933
G1 X142.508 Y146.831 E0.02978
G1 X141.731 Y146.297 E0.02958
G1 X141.347 Y145.919 E0.01688
G1 X140.905 Y146.348 E0.01930
G1 X139.863 Y147.005 E0.03863
G1 X138.701 Y147.426 E0.03875
G1 X137.483 Y147.589 E0.03854
G1 X128.732 Y147.581 E0.27437
G1 X127.846 Y147.470 E0.02800
G1 X126.981 Y147.219 E0.02824
G1 X126.185 Y146.847 E0.02757
G1 X125.409 Y146.321 E0.02937
G1 X124.999 Y145.917 E0.01805
G1 X124.555 Y146.348 E0.01938
G1 X123.513 Y147.005 E0.03864
G1 X122.351 Y147.426 E0.03875
G1 X121.133 Y147.589 E0.03853
G1 X112.430 Y147.583 E0.27288
G1 X111.500 Y147.471 E0.02938
G1 X110.630 Y147.219 E0.02837
G1 X109.804 Y146.829 E0.02864
G1 X109.028 Y146.295 E0.02955
G1 X108.647 Y145.919 E0.01677
G1 X108.205 Y146.348 E0.01930
G1 X107.158 Y147.007 E0.03879
G1 X105.993 Y147.428 E0.03885
G1 X104.829 Y147.585 E0.03682
G1 X96.013 Y147.579 E0.27643
G1 X95.158 Y147.472 E0.02702
G1 X94.348 Y147.245 E0.02637
G1 X93.462 Y146.834 E0.03061
G1 X92.661 Y146.280 E0.03053
G1 X91.936 Y145.565 E0.03193
G1 X91.233 Y144.511 E0.03974
G1 X90.772 Y143.318 E0.04010
G1 X90.588 Y142.035 E0.04064
G1 X90.593 Y133.286 E0.27432
G1 X90.690 Y132.444 E0.02655
G1 X90.942 Y131.543 E0.02933
G1 X91.344 Y130.683 E0.02978
G1 X91.878 Y129.907 E0.02955
G1 X92.256 Y129.525 E0.01684
G1 X91.854 Y129.114 E0.01803
G1 X91.170 Y128.038 E0.03995
G1 X90.749 Y126.876 E0.03876
G1 X90.586 Y125.658 E0.03854
G1 X90.594 Y116.907 E0.27437
G1 X90.705 Y116.021 E0.02800
G1 X90.956 Y115.156 E0.02824
G1 X91.328 Y114.360 E0.02757
G1 X91.854 Y113.586 E0.02933
G1 X92.258 Y113.174 E0.01809
G1 X91.827 Y112.730 E0.01938
G1 X91.170 Y111.688 E0.03864
G1 X90.749 Y110.526 E0.03875
G1 X90.586 Y109.308 E0.03853
G1 X90.592 Y100.605 E0.27288
G1 X90.704 Y99.674 E0.02938
G1 X90.956 Y98.805 E0.02837
G1 X91.346 Y97.979 E0.02866
G1 X91.904 Y97.175 E0.03068
G1 X92.254 Y96.823 E0.01555
G1 X91.854 Y96.414 E0.01796
G1 X91.170 Y95.338 E0.03995
G1 X90.749 Y94.176 E0.03876
G1 X90.586 Y92.958 E0.03853
G1 X90.592 Y84.255 E0.27288
G1 X90.704 Y83.324 E0.02938
G1 X90.956 Y82.455 E0.02837
G1 X91.346 Y81.629 E0.02866
G1 X91.904 Y80.825 E0.03068
G1 X92.254 Y80.473 E0.01555
G1 X91.854 Y80.063 E0.01796
G1 X91.168 Y78.984 E0.04011
G1 X90.747 Y77.818 E0.03886
G1 X90.590 Y76.654 E0.03682
G1 X90.596 Y67.836 E0.27650
G1 X90.704 Y66.976 E0.02717
G1 X90.943 Y66.139 E0.02731
G1 X91.327 Y65.313 E0.02856
G1 X91.894 Y64.487 E0.03142
G1 X92.616 Y63.759 E0.03212
G1 X93.494 Y63.147 E0.03356
G1 X94.616 Y62.666 E0.03829
G1 X95.844 Y62.430 E0.03920
G1 X105.050 Y62.428 E0.28866
G1 X105.989 Y62.571 E0.02976
G1 X106.910 Y62.878 E0.03044
G1 X107.816 Y63.370 E0.03232
G1 X108.680 Y64.052 E0.03451
G1 X109.059 Y63.683 E0.01659
G1 X109.992 Y63.067 E0.03505
G1 X111.010 Y62.653 E0.03444
G1 X112.087 Y62.441 E0.03443
G1 X121.377 Y62.427 E0.29127
G1 X122.351 Y62.574 E0.03089
G1 X123.300 Y62.895 E0.03142
G1 X124.142 Y63.354 E0.03007
G1 X125.030 Y64.052 E0.03541
G1 X125.409 Y63.683 E0.01659
G1 X126.342 Y63.067 E0.03505
G1 X127.361 Y62.653 E0.03447
G1 X128.474 Y62.437 E0.03557
G1 X137.724 Y62.427 E0.29001
G1 X138.695 Y62.572 E0.03079
G1 X139.616 Y62.881 E0.03047
G1 X140.463 Y63.335 E0.03011
G1 X141.381 Y64.051 E0.03652
G1 X141.759 Y63.683 E0.01657
G1 X142.692 Y63.067 E0.03505
G1 X143.710 Y62.653 E0.03444
G1 X144.787 Y62.441 E0.03443
G1 X154.050 Y62.425 E0.29042
G1 X155.017 Y62.566 E0.03066
G1 X155.935 Y62.867 E0.03028
G1 X156.783 Y63.315 E0.03008
G1 X157.620 Y63.969 E0.03331
G1 X158.343 Y64.795 E0.03440
G1 X158.818 Y65.586 E0.02895
G1 X159.170 Y66.477 E0.03004
G1 X159.385 Y67.567 E0.03482
G1 X159.405 Y76.755 E0.28809
G1 X159.292 Y77.643 E0.02808
G1 X159.039 Y78.509 E0.02829
G1 X158.664 Y79.304 E0.02756
G1 X158.176 Y80.029 E0.02740
G1 X157.793 Y80.421 E0.01716
G1 F8640
G1 X158.300 Y81.087 E-0.19329
G1 X158.802 Y81.904 E-0.22153
G1 X159.168 Y82.820 E-0.22760
G1 X159.270 Y83.319 E-0.11757
G1 E-0.04000 F2100.00000
G1 Z0.800 F10800.000
G1 X141.349 Y64.617
G1 Z0.200
G1 E0.80000 F2100.00000
G1 F1200
G1 X141.984 Y63.986 E0.02808
G1 X142.852 Y63.409 E0.03268
G1 X143.835 Y63.009 E0.03326
G1 X144.841 Y62.814 E0.03214
G1 X154.036 Y62.802 E0.28830
G1 X154.945 Y62.936 E0.02882
G1 X155.801 Y63.220 E0.02825
G1 X156.591 Y63.640 E0.02806
G1 X157.373 Y64.255 E0.03120
G1 X158.029 Y65.004 E0.03121
G1 X158.474 Y65.741 E0.02698
G1 X158.803 Y66.569 E0.02796
G1 X159.008 Y67.586 E0.03254
G1 X159.029 Y76.720 E0.28639
G1 X158.926 Y77.553 E0.02631
G1 X158.691 Y78.363 E0.02643
G1 X158.343 Y79.106 E0.02572
G1 X157.873 Y79.803 E0.02636
G1 X157.233 Y80.449 E0.02851
G1 X157.988 Y81.299 E0.03566
G1 X158.459 Y82.061 E0.02806
G1 X158.802 Y82.914 E0.02885
G1 X159.000 Y83.857 E0.03020
G1 X159.033 Y93.001 E0.28671
G1 X158.938 Y93.839 E0.02646
G1 X158.713 Y94.653 E0.02648
G1 X158.358 Y95.429 E0.02676
G1 X157.848 Y96.183 E0.02853
G1 X157.233 Y96.799 E0.02730
G1 X157.988 Y97.649 E0.03564
G1 X158.459 Y98.411 E0.02806
G1 X158.802 Y99.264 E0.02885
G1 X159.000 Y100.207 E0.03020
G1 X159.033 Y109.351 E0.28671
G1 X158.938 Y110.189 E0.02646
G1 X158.713 Y111.003 E0.02648
G1 X158.358 Y111.779 E0.02676
G1 X157.848 Y112.533 E0.02853
G1 X157.233 Y113.149 E0.02730
G1 X157.988 Y113.999 E0.03564
G1 X158.459 Y114.761 E0.02806
G1 X158.802 Y115.614 E0.02885
G1 X159.000 Y116.557 E0.03020
G1 X159.033 Y125.701 E0.28671
G1 X158.938 Y126.539 E0.02646
G1 X158.713 Y127.353 E0.02648
G1 X158.358 Y128.129 E0.02676
G1 X157.848 Y128.883 E0.02853
G1 X157.230 Y129.502 E0.02742
G1 X157.962 Y130.315 E0.03430
G1 X158.439 Y131.072 E0.02806
G1 X158.789 Y131.922 E0.02882
G1 X158.995 Y132.860 E0.03012
G1 X159.031 Y142.095 E0.28956
G1 X158.939 Y142.889 E0.02504
G1 X158.725 Y143.672 E0.02546
G1 X158.343 Y144.506 E0.02876
G1 X157.806 Y145.284 E0.02964
G1 X157.136 Y145.959 E0.02981
G1 X156.145 Y146.616 E0.03728
G1 X155.028 Y147.043 E0.03749
G1 X153.847 Y147.210 E0.03742
G1 X145.122 Y147.205 E0.27356
G1 X144.329 Y147.112 E0.02505
G1 X143.486 Y146.875 E0.02744
G1 X142.683 Y146.497 E0.02782
G1 X141.960 Y145.997 E0.02756
G1 X141.349 Y145.385 E0.02712
G1 X140.685 Y146.041 E0.02926
G1 X139.713 Y146.658 E0.03609
G1 X138.630 Y147.055 E0.03619
G1 X137.470 Y147.211 E0.03669
G1 X128.744 Y147.204 E0.27359
G1 X127.908 Y147.098 E0.02641
G1 X127.101 Y146.862 E0.02637
G1 X126.359 Y146.512 E0.02572
G1 X125.637 Y146.020 E0.02740
G1 X125.000 Y145.384 E0.02823
G1 X124.335 Y146.041 E0.02931
G1 X123.363 Y146.658 E0.03609
G1 X122.280 Y147.055 E0.03619
G1 X121.120 Y147.211 E0.03668
G1 X112.442 Y147.206 E0.27211
G1 X111.561 Y147.098 E0.02782
G1 X110.751 Y146.862 E0.02646
G1 X109.980 Y146.496 E0.02675
G1 X109.258 Y145.995 E0.02757
G1 X108.649 Y145.385 E0.02702
G1 X107.985 Y146.041 E0.02926
G1 X107.010 Y146.659 E0.03619
G1 X105.884 Y147.066 E0.03755
G1 X104.817 Y147.208 E0.03375
G1 X96.047 Y147.204 E0.27498
G1 X95.246 Y147.106 E0.02531
G1 X94.465 Y146.886 E0.02542
G1 X93.637 Y146.499 E0.02866
G1 X92.890 Y145.980 E0.02851
G1 X92.216 Y145.311 E0.02978
G1 X91.559 Y144.320 E0.03728
G1 X91.132 Y143.203 E0.03749
G1 X90.965 Y142.022 E0.03742
G1 X90.970 Y133.297 E0.27356
G1 X91.063 Y132.504 E0.02505
G1 X91.300 Y131.661 E0.02744
G1 X91.678 Y130.858 E0.02782
G1 X92.177 Y130.136 E0.02752
G1 X92.792 Y129.526 E0.02716
G1 X92.160 Y128.892 E0.02809
G1 X91.517 Y127.888 E0.03737
G1 X91.120 Y126.805 E0.03619
G1 X90.964 Y125.645 E0.03669
G1 X90.971 Y116.919 E0.27359
G1 X91.077 Y116.083 E0.02642
G1 X91.313 Y115.276 E0.02637
G1 X91.663 Y114.534 E0.02572
G1 X92.155 Y113.813 E0.02736
G1 X92.791 Y113.175 E0.02827
G1 X92.134 Y112.510 E0.02932
G1 X91.517 Y111.538 E0.03609
G1 X91.120 Y110.455 E0.03619
G1 X90.964 Y109.295 E0.03668
G1 X90.969 Y100.617 E0.27212
G1 X91.077 Y99.736 E0.02782
G1 X91.313 Y98.926 E0.02646
G1 X91.680 Y98.155 E0.02676
G1 X92.203 Y97.406 E0.02865
G1 X92.792 Y96.826 E0.02592
G1 X92.160 Y96.192 E0.02805
G1 X91.517 Y95.188 E0.03737
G1 X91.120 Y94.105 E0.03619
G1 X90.964 Y92.945 E0.03668
G1 X90.969 Y84.267 E0.27212
G1 X91.077 Y83.386 E0.02782
G1 X91.313 Y82.576 E0.02646
G1 X91.680 Y81.805 E0.02676
G1 X92.203 Y81.056 E0.02865
G1 X92.792 Y80.476 E0.02592
G1 X92.160 Y79.842 E0.02805
G1 X91.516 Y78.835 E0.03747
G1 X91.109 Y77.709 E0.03755
G1 X90.967 Y76.642 E0.03375
G1 X90.971 Y67.871 E0.27501
G1 X91.076 Y67.038 E0.02633
G1 X91.301 Y66.258 E0.02546
G1 X91.661 Y65.487 E0.02668
G1 X92.194 Y64.715 E0.02941
G1 X92.870 Y64.038 E0.03000
G1 X93.692 Y63.469 E0.03136
G1 X94.745 Y63.021 E0.03586
G1 X95.862 Y62.807 E0.03566
G1 X105.009 Y62.804 E0.28680
G1 X105.885 Y62.934 E0.02779
G1 X106.775 Y63.230 E0.02938
G1 X107.621 Y63.693 E0.03023
G1 X108.294 Y64.227 E0.02697
G1 X108.651 Y64.615 E0.01650
G1 X109.284 Y63.986 E0.02799
G1 X110.152 Y63.409 E0.03268
G1 X111.135 Y63.009 E0.03326
G1 X112.141 Y62.814 E0.03214
G1 X121.363 Y62.804 E0.28914
G1 X122.277 Y62.944 E0.02900
G1 X123.162 Y63.247 E0.02934
G1 X123.946 Y63.677 E0.02805
G1 X124.648 Y64.231 E0.02803
G1 X124.999 Y64.617 E0.01635
G1 X125.634 Y63.986 E0.02808
G1 X126.502 Y63.409 E0.03268
G1 X127.485 Y63.009 E0.03327
G1 X128.527 Y62.811 E0.03326
G1 X137.683 Y62.802 E0.28707
G1 X138.591 Y62.935 E0.02879
G1 X139.481 Y63.233 E0.02942
G1 X140.269 Y63.659 E0.02807
G1 X140.998 Y64.231 E0.02905
G1 X141.308 Y64.572 E0.01449
G1 X141.333 Y65.168 F10800.000
G1 F1200
G1 X142.210 Y64.288 E0.03895
G1 X143.014 Y63.750 E0.03032
G1 X143.925 Y63.376 E0.03090
G1 X144.895 Y63.188 E0.03098
G1 X154.022 Y63.179 E0.28617
G1 X154.873 Y63.307 E0.02697
G1 X155.665 Y63.572 E0.02621
G1 X156.397 Y63.964 E0.02604
G1 X157.126 Y64.540 E0.02910
G1 X157.715 Y65.214 E0.02808
G1 X158.130 Y65.896 E0.02503
G1 X158.438 Y66.662 E0.02588
G1 X158.631 Y67.606 E0.03023
G1 X158.653 Y76.687 E0.28470
G1 X158.559 Y77.464 E0.02455
G1 X158.343 Y78.218 E0.02458
G1 X158.022 Y78.908 E0.02386
G1 X157.571 Y79.577 E0.02531
G1 X156.648 Y80.500 E0.04094
G1 X157.101 Y80.866 E0.01826
G1 X157.695 Y81.537 E0.02811
G1 X158.115 Y82.217 E0.02507
G1 X158.437 Y83.010 E0.02682
G1 X158.623 Y83.878 E0.02784
G1 X158.656 Y92.991 E0.28573
G1 X158.565 Y93.781 E0.02494
G1 X158.354 Y94.537 E0.02460
G1 X158.022 Y95.257 E0.02486
G1 X157.547 Y95.955 E0.02649
G1 X156.647 Y96.849 E0.03979
G1 X157.101 Y97.216 E0.01830
G1 X157.695 Y97.887 E0.02811
G1 X158.115 Y98.567 E0.02507
G1 X158.437 Y99.360 E0.02682
G1 X158.623 Y100.228 E0.02784
G1 X158.656 Y109.341 E0.28573
G1 X158.565 Y110.131 E0.02494
G1 X158.354 Y110.887 E0.02460
G1 X158.022 Y111.607 E0.02486
G1 X157.547 Y112.305 E0.02649
G1 X156.647 Y113.199 E0.03979
G1 X157.101 Y113.566 E0.01830
G1 X157.695 Y114.237 E0.02811
G1 X158.115 Y114.917 E0.02507
G1 X158.437 Y115.710 E0.02682
G1 X158.623 Y116.578 E0.02784
G1 X158.656 Y125.691 E0.28573
G1 X158.565 Y126.481 E0.02494
G1 X158.354 Y127.237 E0.02460
G1 X158.022 Y127.957 E0.02486
G1 X157.547 Y128.655 E0.02649
G1 X156.642 Y129.553 E0.03999
G1 X157.071 Y129.888 E0.01707
G1 X157.671 Y130.555 E0.02813
G1 X158.097 Y131.232 E0.02507
G1 X158.425 Y132.021 E0.02680
G1 X158.618 Y132.883 E0.02768
G1 X158.655 Y142.064 E0.28788
G1 X158.571 Y142.804 E0.02333
G1 X158.365 Y143.557 E0.02450
G1 X158.007 Y144.333 E0.02679
G1 X157.527 Y145.030 E0.02655
G1 X156.883 Y145.679 E0.02866
G1 X155.955 Y146.290 E0.03481
G1 X154.954 Y146.672 E0.03361
G1 X153.833 Y146.833 E0.03550
G1 X145.133 Y146.828 E0.27278
G1 X144.388 Y146.739 E0.02352
G1 X143.605 Y146.517 E0.02555
G1 X142.859 Y146.163 E0.02587
G1 X142.190 Y145.698 E0.02555
G1 X141.350 Y144.849 E0.03744
G1 X140.464 Y145.735 E0.03929
G1 X139.564 Y146.311 E0.03350
G1 X138.520 Y146.694 E0.03487
G1 X137.458 Y146.834 E0.03358
G1 X128.757 Y146.826 E0.27283
G1 X127.972 Y146.726 E0.02481
G1 X127.223 Y146.505 E0.02449
G1 X126.535 Y146.178 E0.02387
G1 X125.866 Y145.719 E0.02544
G1 X125.001 Y144.848 E0.03849
G1 X124.114 Y145.735 E0.03932
G1 X123.214 Y146.311 E0.03350
G1 X122.170 Y146.694 E0.03487
G1 X121.108 Y146.834 E0.03357
G1 X112.454 Y146.829 E0.27136
G1 X111.623 Y146.726 E0.02624
G1 X110.873 Y146.505 E0.02454
G1 X110.157 Y146.162 E0.02486
G1 X109.488 Y145.696 E0.02559
G1 X108.650 Y144.849 E0.03735
G1 X107.764 Y145.735 E0.03929
G1 X106.862 Y146.312 E0.03356
